X: 22682
T: Lakes Of Sligo, The
R: polka
M: 2/4
K: Gmajor
|:D2 DE/F/|G>A GF|E>D E/F/G|A/B/A/G/ AB|
D>E DE|GA BB/A/|G/A/GE/ DB|AB/A/ G2:|
|:Bd GG/A/|B/c/d dc/B/|ce AA/B/|c/B/c/d/ e/4f/4e/d/c/|
B2 AB/A/|G>A BA|GE DB|A2 G2:|

